X: 28400
T: Mule That Broke My Heart, The
R: jig
M: 6/8
K: Fmajor
A|:GFD DCD|GAc dgf|dgf dcA|GAG FDC|
DGG GAc|dgg gfa|gfa gfd|1 cAF G2A:|2 cAF GAc||
|:dgg gfg|agf dcA|GFD A,FF|DFF CFF|
DGG GAc|dgg gfa|gfa gfd|1 cAF GAc:|2 cAF G3||

